app/assets/images/niveauX2.svg

<svg width="48" height="48" viewBox="0 0 48 48" fill="none" xmlns="http://www.w3.org/2000/svg">
<path d="M15.848 12.4C15.976 12.4 16.08 12.4427 16.16 12.528C16.24 12.6133 16.28 12.72 16.28 12.848V17.512C16.28 17.6507 16.232 17.768 16.136 17.864C16.0453 17.9547 15.9307 18 15.792 18C15.7173 18 15.6427 17.9893 15.568 17.968C15.4987 17.9413 15.448 17.9067 15.416 17.864L12.48 14.136V17.552C12.48 17.68 12.4373 17.7867 12.352 17.872C12.272 17.9573 12.1653 18 12.032 18C11.904 18 11.8 17.9573 11.72 17.872C11.64 17.7867 11.6 17.68 11.6 17.552V12.888C11.6 12.7493 11.6453 12.6347 11.736 12.544C11.832 12.448 11.9493 12.4 12.088 12.4C12.168 12.4 12.2453 12.416 12.32 12.448C12.4 12.48 12.4587 12.5227 12.496 12.576L15.408 16.288V12.848C15.408 12.72 15.448 12.6133 15.528 12.528C15.6133 12.4427 15.72 12.4 15.848 12.4ZM18.3068 17.512C18.3068 17.6507 18.2615 17.768 18.1708 17.864C18.0801 17.9547 17.9655 18 17.8268 18C17.6881 18 17.5735 17.9547 17.4828 17.864C17.3921 17.768 17.3468 17.6507 17.3468 17.512V14.208C17.3468 14.0693 17.3921 13.9547 17.4828 13.864C17.5735 13.768 17.6881 13.72 17.8268 13.72C17.9655 13.72 18.0801 13.768 18.1708 13.864C18.2615 13.9547 18.3068 14.0693 18.3068 14.208V17.512ZM17.8188 13.2C17.6375 13.2 17.5095 13.1707 17.4348 13.112C17.3601 13.0533 17.3228 12.9493 17.3228 12.8V12.648C17.3228 12.4987 17.3628 12.3947 17.4428 12.336C17.5228 12.2773 17.6508 12.248 17.8268 12.248C18.0135 12.248 18.1441 12.2773 18.2188 12.336C18.2935 12.3947 18.3308 12.4987 18.3308 12.648V12.8C18.3308 12.9547 18.2908 13.0613 18.2108 13.12C18.1361 13.1733 18.0055 13.2 17.8188 13.2ZM22.5814 13.728C22.7094 13.728 22.8161 13.7707 22.9014 13.856C22.9868 13.936 23.0294 14.0373 23.0294 14.16C23.0294 14.224 23.0081 14.304 22.9654 14.4L21.4694 17.696C21.4321 17.7867 21.3761 17.8587 21.3014 17.912C21.2321 17.9653 21.1521 17.9947 21.0614 18L20.9894 18.008C20.8988 18.008 20.8134 17.9813 20.7334 17.928C20.6588 17.8693 20.6001 17.792 20.5574 17.696L19.0694 14.4C19.0321 14.3147 19.0134 14.2293 19.0134 14.144C19.0134 14.0373 19.0588 13.9413 19.1494 13.856C19.2401 13.7653 19.3521 13.72 19.4854 13.72C19.5868 13.72 19.6801 13.7467 19.7654 13.8C19.8508 13.8533 19.9148 13.928 19.9574 14.024L21.0614 16.552L22.1574 14.032C22.2001 13.9307 22.2588 13.8533 22.3334 13.8C22.4081 13.7467 22.4908 13.7227 22.5814 13.728ZM27.5866 15.76C27.5812 15.888 27.5306 15.992 27.4346 16.072C27.3386 16.152 27.2266 16.192 27.0986 16.192H24.4586C24.5226 16.5067 24.6692 16.7547 24.8986 16.936C25.1279 17.112 25.3866 17.2 25.6746 17.2C25.8932 17.2 26.0639 17.1813 26.1866 17.144C26.3092 17.1013 26.4052 17.0587 26.4746 17.016C26.5492 16.968 26.5999 16.936 26.6266 16.92C26.7226 16.872 26.8132 16.848 26.8986 16.848C27.0106 16.848 27.1066 16.888 27.1866 16.968C27.2666 17.048 27.3066 17.1413 27.3066 17.248C27.3066 17.392 27.2319 17.5227 27.0826 17.64C26.9332 17.7627 26.7332 17.8667 26.4826 17.952C26.2319 18.0373 25.9786 18.08 25.7226 18.08C25.2746 18.08 24.8826 17.9867 24.5466 17.8C24.2159 17.6133 23.9599 17.3573 23.7786 17.032C23.5972 16.7013 23.5066 16.3307 23.5066 15.92C23.5066 15.4613 23.6026 15.0587 23.7946 14.712C23.9866 14.3653 24.2399 14.1013 24.5546 13.92C24.8692 13.7333 25.2052 13.64 25.5626 13.64C25.9146 13.64 26.2452 13.736 26.5546 13.928C26.8692 14.12 27.1199 14.3787 27.3066 14.704C27.4932 15.0293 27.5866 15.3813 27.5866 15.76ZM25.5626 14.52C24.9439 14.52 24.5786 14.8107 24.4666 15.392H26.5626V15.336C26.5412 15.112 26.4319 14.92 26.2346 14.76C26.0372 14.6 25.8132 14.52 25.5626 14.52ZM31.8824 13.64C32.0211 13.64 32.1358 13.6853 32.2264 13.776C32.3171 13.8667 32.3624 13.984 32.3624 14.128V17.512C32.3624 17.6507 32.3171 17.768 32.2264 17.864C32.1358 17.9547 32.0211 18 31.8824 18C31.7438 18 31.6291 17.9547 31.5384 17.864C31.4531 17.7733 31.4078 17.6587 31.4024 17.52C31.2691 17.6747 31.0878 17.808 30.8584 17.92C30.6344 18.0267 30.3971 18.08 30.1464 18.08C29.7784 18.08 29.4451 17.9867 29.1464 17.8C28.8478 17.608 28.6104 17.344 28.4344 17.008C28.2638 16.672 28.1784 16.2907 28.1784 15.864C28.1784 15.4373 28.2638 15.056 28.4344 14.72C28.6051 14.3787 28.8371 14.1147 29.1304 13.928C29.4291 13.736 29.7571 13.64 30.1144 13.64C30.3704 13.64 30.6104 13.688 30.8344 13.784C31.0584 13.8747 31.2478 13.992 31.4024 14.136V14.128C31.4024 13.9893 31.4478 13.8747 31.5384 13.784C31.6291 13.688 31.7438 13.64 31.8824 13.64ZM30.2664 17.2C30.6131 17.2 30.8958 17.0747 31.1144 16.824C31.3331 16.568 31.4424 16.248 31.4424 15.864C31.4424 15.48 31.3331 15.16 31.1144 14.904C30.8958 14.648 30.6131 14.52 30.2664 14.52C29.9251 14.52 29.6451 14.648 29.4264 14.904C29.2078 15.16 29.0984 15.48 29.0984 15.864C29.0984 16.248 29.2051 16.568 29.4184 16.824C29.6371 17.0747 29.9198 17.2 30.2664 17.2ZM36.5007 13.72C36.6394 13.72 36.754 13.768 36.8447 13.864C36.9354 13.9547 36.9807 14.0693 36.9807 14.208V16.24C36.9807 16.816 36.8207 17.2667 36.5007 17.592C36.186 17.9173 35.7354 18.08 35.1487 18.08C34.562 18.08 34.1114 17.9173 33.7967 17.592C33.482 17.2667 33.3247 16.816 33.3247 16.24V14.208C33.3247 14.0693 33.37 13.9547 33.4607 13.864C33.5514 13.768 33.666 13.72 33.8047 13.72C33.9434 13.72 34.058 13.768 34.1487 13.864C34.2394 13.9547 34.2847 14.0693 34.2847 14.208V16.24C34.2847 16.5653 34.3567 16.808 34.5007 16.968C34.6447 17.1227 34.8607 17.2 35.1487 17.2C35.442 17.2 35.6607 17.1227 35.8047 16.968C35.9487 16.808 36.0207 16.5653 36.0207 16.24V14.208C36.0207 14.0693 36.066 13.9547 36.1567 13.864C36.2474 13.768 36.362 13.72 36.5007 13.72Z" fill="#6E84FE"/>
<circle cx="24" cy="24" r="22.5" stroke="#6E84FE" stroke-width="3"/>
<path d="M23.537 33.068C23.705 33.292 23.789 33.551 23.789 33.845C23.789 34.209 23.656 34.51 23.39 34.748C23.124 34.986 22.837 35.105 22.529 35.105C22.123 35.105 21.78 34.923 21.5 34.559L17.762 29.582L14.129 34.517C13.849 34.909 13.499 35.105 13.079 35.105C12.771 35.105 12.505 34.993 12.281 34.769C12.057 34.545 11.945 34.286 11.945 33.992C11.945 33.684 12.05 33.397 12.26 33.131L16.313 27.65L12.26 22.274C12.078 22.05 11.987 21.798 11.987 21.518C11.987 21.168 12.12 20.867 12.386 20.615C12.652 20.363 12.946 20.237 13.268 20.237C13.674 20.237 14.017 20.419 14.297 20.783L17.993 25.697L21.605 20.888C21.745 20.692 21.906 20.545 22.088 20.447C22.27 20.335 22.452 20.279 22.634 20.279C22.942 20.279 23.215 20.405 23.453 20.657C23.691 20.895 23.81 21.161 23.81 21.455C23.81 21.721 23.719 21.973 23.537 22.211L19.442 27.608L23.537 33.068ZM34.2107 32.69C34.5467 32.69 34.8267 32.802 35.0507 33.026C35.2747 33.25 35.3867 33.53 35.3867 33.866C35.3867 34.188 35.2747 34.461 35.0507 34.685C34.8267 34.895 34.5467 35 34.2107 35H27.0707C26.7067 35 26.4197 34.888 26.2097 34.664C25.9997 34.44 25.8947 34.153 25.8947 33.803C25.8947 33.453 26.0207 33.145 26.2727 32.879L30.8507 27.986C31.3687 27.426 31.7747 26.866 32.0687 26.306C32.3767 25.732 32.5307 25.207 32.5307 24.731C32.5307 24.101 32.3067 23.555 31.8587 23.093C31.4107 22.631 30.8927 22.4 30.3047 22.4C29.8987 22.4 29.4857 22.54 29.0657 22.82C28.6597 23.086 28.2887 23.443 27.9527 23.891C27.7007 24.227 27.3787 24.395 26.9867 24.395C26.6787 24.395 26.3917 24.276 26.1257 24.038C25.8737 23.8 25.7477 23.534 25.7477 23.24C25.7477 23.03 25.8177 22.82 25.9577 22.61C26.0977 22.386 26.3077 22.134 26.5877 21.854C27.1197 21.322 27.7357 20.895 28.4357 20.573C29.1357 20.251 29.8077 20.09 30.4517 20.09C31.3757 20.09 32.1877 20.286 32.8877 20.678C33.5877 21.07 34.1267 21.609 34.5047 22.295C34.8827 22.981 35.0717 23.758 35.0717 24.626C35.0717 25.48 34.8407 26.362 34.3787 27.272C33.9307 28.168 33.3217 29.029 32.5517 29.855L29.8847 32.69H34.2107Z" fill="#6E84FE"/>
</svg>

<svg width="48" height="48" fill="none" xmlns="http://www.w3.org/2000/svg"><path d="M15.848 12.4c.128 0 .232.043.312.128a.45.45 0 01.12.32v4.664a.479.479 0 01-.488.488.813.813 0 01-.224-.032.334.334 0 01-.152-.104l-2.936-3.728v3.416a.434.434 0 01-.128.32.418.418 0 01-.32.128.408.408 0 01-.312-.128.45.45 0 01-.12-.32v-4.664a.479.479 0 01.488-.488c.08 0 .157.016.232.048.08.032.139.075.176.128l2.912 3.712v-3.44a.45.45 0 01.12-.32.434.434 0 01.32-.128zm2.459 5.112a.493.493 0 01-.136.352.466.466 0 01-.344.136.466.466 0 01-.344-.136.493.493 0 01-.136-.352v-3.304c0-.139.045-.253.136-.344a.453.453 0 01.344-.144c.138 0 .253.048.344.144.09.09.136.205.136.344v3.304zm-.488-4.312c-.181 0-.31-.03-.384-.088-.075-.059-.112-.163-.112-.312v-.152c0-.15.04-.253.12-.312.08-.059.208-.088.384-.088.186 0 .317.03.392.088.075.059.112.163.112.312v.152c0 .155-.04.261-.12.32-.075.053-.205.08-.392.08zm4.762.528c.128 0 .235.043.32.128.086.08.128.181.128.304a.62.62 0 01-.064.24l-1.496 3.296a.485.485 0 01-.408.304l-.072.008a.454.454 0 01-.256-.08.598.598 0 01-.176-.232L19.07 14.4a.635.635 0 01-.056-.256c0-.107.046-.203.136-.288a.456.456 0 01.336-.136c.102 0 .195.027.28.08.086.053.15.128.192.224l1.104 2.528 1.096-2.52a.528.528 0 01.176-.232.378.378 0 01.248-.072zm5.006 2.032a.411.411 0 01-.152.312.509.509 0 01-.336.12h-2.64c.064.315.21.563.44.744.229.176.488.264.776.264.218 0 .389-.019.512-.056.122-.043.218-.085.288-.128.074-.048.125-.08.152-.096a.61.61 0 01.272-.072c.112 0 .208.04.288.12.08.08.12.173.12.28 0 .144-.075.275-.224.392-.15.123-.35.227-.6.312-.251.085-.504.128-.76.128-.448 0-.84-.093-1.176-.28a1.969 1.969 0 01-.768-.768 2.273 2.273 0 01-.272-1.112c0-.459.096-.861.288-1.208.192-.347.445-.61.76-.792.314-.187.65-.28 1.008-.28.352 0 .682.096.992.288.314.192.565.45.752.776.186.325.28.677.28 1.056zm-2.024-1.24c-.62 0-.984.29-1.096.872h2.096v-.056a.827.827 0 00-.328-.576 1.038 1.038 0 00-.672-.24zm6.32-.88a.466.466 0 01.48.488v3.384a.493.493 0 01-.137.352.466.466 0 01-.344.136.466.466 0 01-.344-.136.513.513 0 01-.136-.344 1.676 1.676 0 01-.544.4c-.224.107-.46.16-.712.16-.368 0-.7-.093-1-.28a2.051 2.051 0 01-.712-.792 2.491 2.491 0 01-.256-1.144c0-.427.086-.808.256-1.144.171-.341.403-.605.696-.792.3-.192.627-.288.984-.288.256 0 .496.048.72.144.224.09.414.208.568.352v-.008c0-.139.046-.253.136-.344a.453.453 0 01.344-.144zm-1.617 3.56c.347 0 .63-.125.848-.376.22-.256.328-.576.328-.96s-.109-.704-.328-.96a1.063 1.063 0 00-.848-.384c-.34 0-.62.128-.84.384-.218.256-.328.576-.328.96s.107.704.32.96c.22.25.502.376.848.376zm6.235-3.48c.138 0 .253.048.344.144.09.09.136.205.136.344v2.032c0 .576-.16 1.027-.48 1.352-.315.325-.766.488-1.352.488-.587 0-1.038-.163-1.352-.488-.315-.325-.472-.776-.472-1.352v-2.032c0-.139.045-.253.136-.344a.453.453 0 01.344-.144c.138 0 .253.048.344.144.09.09.136.205.136.344v2.032c0 .325.072.568.216.728.144.155.36.232.648.232.293 0 .512-.077.656-.232.144-.16.216-.403.216-.728v-2.032c0-.139.045-.253.136-.344a.453.453 0 01.344-.144z" fill="#6E84FE"/><circle cx="24" cy="24" r="22.5" stroke="#6E84FE" stroke-width="3"/><path d="M23.537 33.068c.168.224.252.483.252.777 0 .364-.133.665-.399.903s-.553.357-.861.357c-.406 0-.749-.182-1.029-.546l-3.738-4.977-3.633 4.935c-.28.392-.63.588-1.05.588a1.09 1.09 0 01-.798-.336 1.067 1.067 0 01-.336-.777c0-.308.105-.595.315-.861l4.053-5.481-4.053-5.376a1.168 1.168 0 01-.273-.756c0-.35.133-.651.399-.903s.56-.378.882-.378c.406 0 .749.182 1.029.546l3.696 4.914 3.612-4.809c.14-.196.301-.343.483-.441.182-.112.364-.168.546-.168.308 0 .581.126.819.378.238.238.357.504.357.798 0 .266-.091.518-.273.756l-4.095 5.397 4.095 5.46zm10.674-.378c.336 0 .616.112.84.336.224.224.336.504.336.84 0 .322-.112.595-.336.819a1.18 1.18 0 01-.84.315h-7.14c-.364 0-.651-.112-.861-.336-.21-.224-.315-.511-.315-.861s.126-.658.378-.924l4.578-4.893c.518-.56.924-1.12 1.218-1.68.308-.574.462-1.099.462-1.575 0-.63-.224-1.176-.672-1.638-.448-.462-.966-.693-1.554-.693-.406 0-.82.14-1.24.42a4.454 4.454 0 00-1.112 1.071c-.252.336-.574.504-.966.504-.308 0-.595-.119-.861-.357-.252-.238-.378-.504-.378-.798 0-.21.07-.42.21-.63.14-.224.35-.476.63-.756a6.332 6.332 0 011.848-1.281c.7-.322 1.372-.483 2.016-.483.924 0 1.736.196 2.436.588.7.392 1.239.931 1.617 1.617.378.686.567 1.463.567 2.331 0 .854-.231 1.736-.693 2.646-.448.896-1.057 1.757-1.827 2.583l-2.667 2.835h4.326z" fill="#6E84FE"/></svg>
